static/logos/cultureAmp-wordmark-color.svg

<svg width="100" height="15" viewBox="0 0 100 15" fill="none" xmlns="http://www.w3.org/2000/svg">
<g clip-path="url(#clip0_1_3112)">
<path d="M10.3938 8.16577C10.4299 8.22915 10.442 8.30347 10.4278 8.37508C10.2907 8.99803 9.9571 9.56044 9.47625 9.97952C9.44988 9.99948 9.4277 10.0244 9.41097 10.0529C9.40496 10.066 9.40186 10.0802 9.40186 10.0946C9.40186 10.109 9.40496 10.1231 9.41097 10.1362C9.42056 10.1473 9.43266 10.1561 9.44625 10.1618C9.45988 10.1675 9.4746 10.1699 9.48931 10.1688C9.55895 10.1503 9.62625 10.124 9.69004 10.0905C9.9721 9.93028 10.2213 9.71819 10.4245 9.46536C10.5469 9.31686 10.6677 9.16831 10.7836 9.01488C11.0018 8.71186 11.1633 8.37177 11.2602 8.01113C11.3483 7.71899 11.4234 7.42355 11.5148 7.13141C11.5521 7.02427 11.5974 6.92008 11.6503 6.81968C11.6715 6.78875 11.6962 6.76028 11.7237 6.7348H11.7466C11.7694 6.81149 11.7972 6.88496 11.8135 6.96331C11.8562 7.20968 11.8622 7.46101 11.8315 7.70919C11.7976 8.03218 11.7314 8.35093 11.634 8.66073C11.5657 8.85113 11.4735 9.0321 11.3598 9.19932C11.0737 9.67073 10.736 10.1087 10.3527 10.505C10.0704 10.7777 9.76512 11.0256 9.44032 11.246C9.41665 11.2582 9.39512 11.2742 9.37669 11.2934C9.3577 11.3163 9.34782 11.3453 9.34895 11.375C9.35577 11.3883 9.36573 11.3996 9.37794 11.4082C9.39016 11.4167 9.40431 11.4221 9.41911 11.424C9.48738 11.4235 9.55536 11.4148 9.62149 11.3978C9.92306 11.3109 10.2051 11.1669 10.4523 10.9735C11.1435 10.4638 11.705 9.79843 12.0909 9.03121C12.3369 8.53065 12.4964 7.99206 12.5626 7.43823C12.6023 7.08863 12.6062 6.73589 12.5741 6.38552C12.546 6.20597 12.5516 6.02278 12.5904 5.84528C12.6006 5.8046 12.6154 5.76516 12.6344 5.72774C12.6785 5.64286 12.7422 5.63798 12.7846 5.72774C12.8292 5.8127 12.8622 5.90331 12.8825 5.99706C12.9721 6.44601 13.0002 6.90504 12.9658 7.36153C12.9024 8.10319 12.716 8.82907 12.4141 9.50944C12.1084 10.21 11.6494 10.833 11.0708 11.3325C10.8831 11.4958 10.7036 11.659 10.5094 11.8124C10.2761 11.982 10.0262 12.1275 9.76351 12.2465C9.18387 12.5345 8.56698 12.7405 7.9306 12.8586C7.54056 12.9263 7.14448 12.9526 6.74891 12.9369C6.55472 12.9369 6.35883 12.9239 6.16464 12.9141C5.72552 12.8898 5.2923 12.8018 4.87847 12.6529C4.27923 12.4444 3.70327 12.1742 3.15984 11.8467C2.52609 11.4581 1.98559 10.9349 1.57665 10.3141C1.37477 10.0221 1.19892 9.71303 1.0511 9.39028C1.04357 9.37113 1.03144 9.35411 1.01579 9.34073C1.00014 9.32738 0.981435 9.31802 0.961335 9.31359C0.854004 9.2869 0.754153 9.23613 0.669323 9.16516C0.584496 9.09419 0.516915 9.00484 0.47169 8.90391C0.350664 8.60835 0.256704 8.30246 0.190962 7.98992C0.071348 7.48536 0.00731194 6.96927 0 6.45081C0.00490214 6.12254 0.0349129 5.79516 0.0897685 5.47149C0.151722 5.03173 0.261171 4.59996 0.416198 4.18375C0.553306 3.8195 0.746008 3.47869 0.987448 3.17344C1.12781 2.99717 1.2437 2.79968 1.38079 2.62015C2.25092 1.47014 3.49668 0.661581 4.90133 0.335139C5.17226 0.269853 5.44323 0.201302 5.71742 0.150705C5.96222 0.105005 6.20706 0.075627 6.45839 0.0527766C6.74891 0.0266624 7.03944 0.00381242 7.33161 0.000548122C8.50367 -0.0157723 9.65185 0.332727 10.6171 0.99779C10.7271 1.06432 10.8263 1.14746 10.9109 1.24425C10.9734 1.32041 11.015 1.41153 11.0317 1.50865C11.0381 1.5315 11.0512 1.55194 11.0692 1.56741C11.2994 1.78938 11.5442 1.99993 11.7564 2.23822C12.0935 2.6066 12.3376 3.05043 12.468 3.53252C12.5277 3.72723 12.5485 3.9318 12.5292 4.13456C12.5099 4.3373 12.4508 4.53427 12.3554 4.71419C12.1957 4.98294 11.9712 5.20742 11.7025 5.36706C11.4035 5.57048 11.0448 5.66762 10.684 5.64286C10.3467 5.62746 10.0266 5.49 9.7831 5.25605C9.5273 4.99024 9.25472 4.74109 8.96702 4.51016C8.7777 4.36653 8.58181 4.23109 8.38435 4.10214C8.1456 3.95867 7.88113 3.8633 7.60581 3.82141C7.29262 3.76412 6.97367 3.74494 6.65589 3.76428C5.96117 3.77752 5.28899 4.01321 4.7381 4.43673C4.32528 4.74863 3.9855 5.1469 3.74252 5.60371C3.60491 5.88089 3.51812 6.18052 3.48627 6.48835C3.45969 6.67823 3.44444 6.86952 3.44057 7.06121C3.45596 7.60766 3.59846 8.14302 3.85677 8.6248C4.04762 8.99855 4.30161 9.33645 4.60754 9.62371C4.8921 9.8794 5.20734 10.0987 5.54605 10.2765C5.93153 10.4855 6.35726 10.6096 6.79464 10.6405C7.36899 10.7005 7.94915 10.6134 8.48065 10.3875C8.73536 10.2678 8.96992 10.1092 9.17593 9.91746C9.53173 9.61145 9.8302 9.24444 10.0573 8.83371C10.1422 8.6852 10.2009 8.52198 10.2727 8.36532C10.294 8.31798 10.3184 8.27065 10.3429 8.22496C10.3575 8.20327 10.3746 8.18347 10.3938 8.16577Z" fill="#8F2FA9"/>
<path d="M22.4037 9.7624C20.667 9.7624 19.5049 8.46974 19.5049 6.68091C19.5049 4.89208 20.667 3.59943 22.4037 3.59943C22.8809 3.60436 23.3506 3.72016 23.7755 3.9377C24.2003 4.15523 24.5688 4.46853 24.8519 4.85289C24.8639 4.8741 24.8808 4.89212 24.9012 4.90551C24.9216 4.91886 24.9449 4.92712 24.9692 4.9297C24.9934 4.93224 25.018 4.92898 25.0407 4.92019C25.0634 4.91136 25.0837 4.89724 25.0999 4.87902L26.484 3.69083C26.5161 3.66146 26.5364 3.62145 26.5412 3.57822C26.546 3.53499 26.535 3.49149 26.5101 3.4558C25.6614 2.21536 24.2251 1.58862 22.4102 1.58862C19.3091 1.58862 17.2656 3.89974 17.2656 6.68091C17.2656 9.48821 19.3156 11.7993 22.4102 11.7993C24.2251 11.7993 25.7528 11.0289 26.5101 9.90603C26.5353 9.87047 26.5466 9.82688 26.5418 9.78353C26.537 9.74023 26.5164 9.70019 26.484 9.67099L25.0869 8.52849C25.0719 8.51055 25.0526 8.49664 25.0309 8.48793C25.0092 8.47922 24.9856 8.47599 24.9624 8.47857C24.9391 8.48116 24.9169 8.48946 24.8976 8.50273C24.8783 8.51599 24.8626 8.53382 24.8519 8.55462C24.5638 8.92982 24.193 9.23345 23.7684 9.44184C23.3437 9.65019 22.8767 9.75769 22.4037 9.75587V9.7624Z" fill="#8F2FA9"/>
<path d="M31.8489 8.72763C31.8489 9.52412 31.3789 9.9942 30.5432 9.9942C29.7075 9.9942 29.2114 9.52412 29.2114 8.72763V4.2621C29.2114 4.2188 29.1942 4.1773 29.1636 4.14666C29.1329 4.11605 29.0915 4.09888 29.0481 4.09888H27.3507C27.3074 4.09888 27.2659 4.11605 27.2353 4.14666C27.2047 4.1773 27.1875 4.2188 27.1875 4.2621V8.80597C27.1875 10.7907 28.3496 11.783 29.812 11.783C30.8566 11.783 31.5617 11.1432 31.862 10.177V11.4174C31.8643 11.46 31.8823 11.5001 31.9124 11.5302C31.9425 11.5603 31.9827 11.5783 32.0252 11.5807H33.7357C33.779 11.5807 33.8205 11.5634 33.8511 11.5328C33.8817 11.5022 33.8989 11.4607 33.8989 11.4174V4.2621C33.8989 4.2188 33.8817 4.1773 33.8511 4.14666C33.8205 4.11605 33.779 4.09888 33.7357 4.09888H32.0187C31.9754 4.09888 31.9339 4.11605 31.9033 4.14666C31.8726 4.1773 31.8554 4.2188 31.8554 4.2621L31.8489 8.72763Z" fill="#8F2FA9"/>
<path d="M38.5821 5.68856C38.5821 5.73183 38.5993 5.77336 38.6299 5.80397C38.6605 5.83457 38.702 5.85175 38.7453 5.85175H39.8421V9.35764C39.8421 10.7678 40.5603 11.5904 42.0619 11.5904H43.4591C43.5022 11.5904 43.5437 11.5732 43.5744 11.5426C43.605 11.512 43.622 11.4705 43.622 11.4272V9.95824C43.624 9.93631 43.6212 9.91421 43.6139 9.89348C43.6062 9.8728 43.5946 9.85397 43.5788 9.8384C43.5631 9.8228 43.5446 9.81086 43.5236 9.80336C43.503 9.79586 43.4808 9.79304 43.4591 9.79506H42.5107C42.0405 9.79506 41.8841 9.63183 41.8841 9.23356V5.85502H43.4377C43.4808 5.85502 43.5224 5.83784 43.553 5.80723C43.5837 5.77663 43.601 5.7351 43.601 5.69183V4.2686C43.601 4.2253 43.5837 4.18377 43.553 4.15316C43.5224 4.12256 43.4808 4.10538 43.4377 4.10538H41.8841V1.95095C41.8841 1.90766 41.8667 1.86615 41.8361 1.83554C41.8054 1.80493 41.7639 1.78773 41.7208 1.78773H39.9857C39.9638 1.78573 39.9417 1.78857 39.921 1.79606C39.9002 1.80356 39.8814 1.81551 39.8658 1.83109C39.8503 1.84666 39.8383 1.86548 39.8308 1.88619C39.8233 1.90691 39.8205 1.92901 39.8225 1.95095V4.09231H38.7257C38.6824 4.09231 38.6409 4.10949 38.6103 4.14014C38.5797 4.17074 38.5625 4.21223 38.5625 4.25554L38.5821 5.68856Z" fill="#8F2FA9"/>
<path d="M49.4191 8.72763C49.4191 9.52412 48.9489 9.9942 48.1135 9.9942C47.2776 9.9942 46.7816 9.52412 46.7816 8.72763V4.2621C46.7816 4.2188 46.7643 4.1773 46.7336 4.14666C46.7034 4.11605 46.6618 4.09888 46.6183 4.09888H44.9211C44.8776 4.09888 44.836 4.11605 44.8054 4.14666C44.7747 4.1773 44.7578 4.2188 44.7578 4.2621V8.80597C44.7578 10.7907 45.9199 11.783 47.3824 11.783C48.4268 11.783 49.132 11.1432 49.432 10.177V11.4174C49.4344 11.46 49.4526 11.5001 49.4828 11.5302C49.5126 11.5603 49.553 11.5783 49.5953 11.5807H51.3058C51.3493 11.5807 51.3909 11.5634 51.4215 11.5328C51.4518 11.5022 51.4691 11.4607 51.4691 11.4174V4.2621C51.4691 4.2188 51.4518 4.1773 51.4215 4.14666C51.3909 4.11605 51.3493 4.09888 51.3058 4.09888H49.5889C49.5457 4.09888 49.5042 4.11605 49.4735 4.14666C49.4429 4.1773 49.4256 4.2188 49.4256 4.2621L49.4191 8.72763Z" fill="#8F2FA9"/>
<path d="M53.1471 11.4174C53.1471 11.4607 53.1644 11.5022 53.1947 11.5328C53.2253 11.5634 53.2668 11.5807 53.3104 11.5807H54.9947C55.0378 11.5807 55.0793 11.5634 55.11 11.5328C55.1406 11.5022 55.158 11.4607 55.158 11.4174V7.31747C55.158 6.28593 55.8108 6.09009 56.7249 6.09009H57.4035C57.4471 6.09009 57.4886 6.07291 57.5193 6.0423C57.5499 6.0117 57.5668 5.97017 57.5668 5.92686V4.2621C57.5668 4.2188 57.5499 4.1773 57.5193 4.14666C57.4886 4.11605 57.4471 4.09888 57.4035 4.09888H57.2406C56.1439 4.09888 55.4648 4.60811 55.1515 5.84855V4.26863C55.1515 4.22533 55.1342 4.1838 55.1035 4.15319C55.0729 4.12259 55.0314 4.10541 54.9882 4.10541H53.3039C53.2604 4.10541 53.2188 4.12259 53.1882 4.15319C53.1576 4.1838 53.1406 4.22533 53.1406 4.26863L53.1471 11.4174Z" fill="#8F2FA9"/>
<path fill-rule="evenodd" clip-rule="evenodd" d="M65.1795 7.84301C65.1795 5.61023 63.8476 3.79529 61.4452 3.79529C59.1863 3.79529 57.7109 5.61023 57.7109 7.84301C57.7109 10.1541 59.3561 11.8777 61.863 11.8777C63.221 11.8777 64.3831 11.277 64.9315 10.4806C64.9456 10.4619 64.9561 10.4406 64.9617 10.4178C64.9678 10.395 64.969 10.3713 64.965 10.3481C64.9613 10.3249 64.9533 10.3027 64.9408 10.2828C64.9279 10.2629 64.9117 10.2458 64.8924 10.2324L63.7496 9.21402C63.7339 9.20007 63.7154 9.18963 63.6952 9.18334C63.6751 9.17705 63.6537 9.17507 63.6327 9.17753C63.6121 9.17999 63.5916 9.18685 63.5738 9.19765C63.5557 9.20842 63.54 9.22289 63.5279 9.24011C63.3327 9.52164 63.0706 9.75019 62.765 9.90519C62.4597 10.0602 62.1206 10.1368 61.7779 10.128C60.8117 10.128 59.9238 9.671 59.7932 8.41753H65.0162C65.0384 8.41955 65.0601 8.41668 65.0811 8.40918C65.1017 8.40168 65.1206 8.38975 65.1359 8.37418C65.1517 8.35858 65.1638 8.33979 65.171 8.31906C65.1787 8.29834 65.1815 8.27624 65.1795 8.2543V7.84301ZM63.1166 6.86043C62.9726 6.05092 62.3722 5.54168 61.4581 5.54168C60.5573 5.54168 59.9565 6.04438 59.813 6.86043H63.1166Z" fill="#8F2FA9"/>
<path fill-rule="evenodd" clip-rule="evenodd" d="M67.9071 11.4337C67.8999 11.4513 67.8971 11.4703 67.8991 11.4892C67.9007 11.508 67.9071 11.5262 67.9172 11.5422C67.9273 11.5581 67.9414 11.5714 67.9575 11.5809C67.9741 11.5905 67.9926 11.5959 68.0116 11.5969H70.0092C70.0592 11.5984 70.1079 11.5832 70.1483 11.5536C70.1886 11.524 70.2176 11.4818 70.2309 11.4337L71.0277 9.26623H75.0491L75.8652 11.4337C75.8789 11.4818 75.9079 11.524 75.9483 11.5536C75.9886 11.5832 76.0374 11.5984 76.0874 11.5969H78.1241C78.143 11.5959 78.1616 11.5905 78.1781 11.5809C78.1942 11.5714 78.2083 11.5581 78.2184 11.5422C78.2285 11.5262 78.235 11.508 78.2366 11.4892C78.2386 11.4703 78.2358 11.4513 78.2285 11.4337L74.5725 1.94116C74.5579 1.89792 74.5297 1.86059 74.4918 1.83471C74.4543 1.80884 74.4096 1.7958 74.3636 1.79753H71.7652C71.7176 1.79282 71.6696 1.80446 71.6293 1.83055C71.589 1.85664 71.5587 1.89563 71.5434 1.94116L67.9071 11.4337ZM73.0301 3.84425L71.7132 7.39905H74.3507L73.0301 3.84425Z" fill="#8F2FA9"/>
<path d="M79.3736 11.4174C79.3736 11.4607 79.391 11.5022 79.4216 11.5328C79.4519 11.5634 79.4934 11.5806 79.5369 11.5806H81.2341C81.2777 11.5806 81.3192 11.5634 81.3498 11.5328C81.3801 11.5022 81.3974 11.4607 81.3974 11.4174V6.86043C81.3974 6.12926 81.8023 5.67225 82.5724 5.67225C83.343 5.67225 83.774 6.12926 83.774 6.86043V11.4174C83.774 11.4607 83.791 11.5022 83.8216 11.5328C83.8523 11.5634 83.8938 11.5806 83.9369 11.5806H85.6474C85.691 11.5806 85.7325 11.5634 85.7632 11.5328C85.7938 11.5022 85.8107 11.4607 85.8107 11.4174V6.86043C85.8107 6.12926 86.2285 5.67225 86.9861 5.67225C87.7434 5.67225 88.1873 6.12926 88.1873 6.86043V11.4174C88.1894 11.4599 88.2075 11.5001 88.2377 11.5302C88.2676 11.5603 88.3079 11.5783 88.3503 11.5806H90.0478C90.091 11.5806 90.1325 11.5634 90.1632 11.5328C90.1938 11.5022 90.2111 11.4607 90.2111 11.4174V6.79515C90.2111 4.86269 89.0684 3.88342 87.6127 3.88342C86.3853 3.88342 85.7587 4.67991 85.4321 5.67878C85.3402 5.18051 85.0785 4.72942 84.6918 4.40216C84.3051 4.07491 83.8168 3.8916 83.3103 3.88342C82.2398 3.88342 81.7567 4.53628 81.391 5.50249V4.26208C81.391 4.21878 81.3736 4.17729 81.343 4.14664C81.3123 4.11604 81.2712 4.09886 81.2277 4.09886H79.5305C79.4869 4.09886 79.4454 4.11604 79.4148 4.14664C79.3841 4.17729 79.3672 4.21878 79.3672 4.26208L79.3736 11.4174Z" fill="#8F2FA9"/>
<path fill-rule="evenodd" clip-rule="evenodd" d="M99.9954 7.83975C99.9954 5.64612 98.7027 3.88342 96.6265 3.88342C95.2688 3.88342 94.224 4.60156 93.8978 5.62003V4.26208C93.8978 4.21878 93.8805 4.17729 93.8498 4.14664C93.8192 4.11604 93.7777 4.09886 93.7345 4.09886H92.0305C91.9873 4.09886 91.9458 4.11604 91.9152 4.14664C91.8845 4.17729 91.8672 4.21878 91.8672 4.26208V14.3161C91.8672 14.3594 91.8845 14.4009 91.9152 14.4315C91.9458 14.4621 91.9873 14.4793 92.0305 14.4793H93.741C93.7841 14.4793 93.8257 14.4621 93.8563 14.4315C93.8869 14.4009 93.9043 14.3594 93.9043 14.3161V10.0725C94.2305 11.091 95.2753 11.7961 96.6329 11.7961C98.7091 11.7961 100.002 10.0464 100.002 7.83975H99.9954ZM97.8277 7.83975C97.8277 6.54708 97.0446 5.67225 95.8692 5.67225C94.6809 5.67225 93.8978 6.52096 93.8978 7.82668C93.8978 9.13241 94.6942 9.99418 95.8692 9.99418C97.0446 9.99418 97.8277 9.13241 97.8277 7.83975Z" fill="#8F2FA9"/>
<path d="M37.4483 1.2654L35.7263 1.26866C35.7044 1.26665 35.6823 1.2695 35.6616 1.27699C35.6409 1.28448 35.6221 1.29644 35.6065 1.31202C35.5909 1.32759 35.579 1.3464 35.5715 1.36712C35.564 1.38783 35.5611 1.40994 35.5631 1.43188V11.4206C35.5631 11.4639 35.5803 11.5054 35.6109 11.536C35.6415 11.5666 35.6831 11.5838 35.7263 11.5838H37.4483C37.4915 11.5838 37.5331 11.5666 37.5637 11.536C37.5943 11.5054 37.6115 11.4639 37.6115 11.4206V1.42861C37.6135 1.40667 37.6106 1.38457 37.6031 1.36385C37.5956 1.34314 37.5837 1.32433 37.5681 1.30875C37.5525 1.29318 37.5337 1.28122 37.513 1.27373C37.4923 1.26623 37.4702 1.26339 37.4483 1.2654Z" fill="#8F2FA9"/>
</g>
<defs>
<clipPath id="clip0_1_3112">
<rect width="100" height="14.5161" fill="white"/>
</clipPath>
</defs>
</svg>

<svg xmlns="http://www.w3.org/2000/svg" width="426.667" height="64" fill="none" viewBox="0 0 100 15"><g fill="#8F2FA9" clip-path="url(#a)"><path d="M10.394 8.166a.304.304 0 0 1 .034.21 2.977 2.977 0 0 1-.952 1.604.252.252 0 0 0-.065.073.1.1 0 0 0 0 .083.096.096 0 0 0 .078.033.964.964 0 0 0 .201-.079c.282-.16.531-.372.735-.625.122-.148.243-.297.359-.45a3.09 3.09 0 0 0 .476-1.004c.088-.292.163-.587.255-.88a2.27 2.27 0 0 1 .135-.311.505.505 0 0 1 .074-.085h.023c.022.076.05.15.066.228.043.247.05.498.018.746-.033.323-.1.642-.197.952-.068.19-.16.371-.274.538-.286.472-.624.91-1.007 1.306-.283.273-.588.52-.913.741a.242.242 0 0 0-.063.047.12.12 0 0 0-.028.082.092.092 0 0 0 .07.049c.068 0 .136-.01.202-.026.302-.087.584-.231.831-.425a5.464 5.464 0 0 0 1.639-1.942 4.941 4.941 0 0 0 .483-2.645 1.467 1.467 0 0 1 .016-.54c.01-.041.025-.08.044-.118.044-.085.108-.09.15 0 .045.085.078.175.098.27.09.448.118.907.084 1.364a6.703 6.703 0 0 1-.552 2.147 5.106 5.106 0 0 1-1.343 1.823c-.188.164-.367.327-.562.48-.233.17-.483.316-.745.434a6.983 6.983 0 0 1-1.833.613c-.39.067-.787.094-1.182.078-.194 0-.39-.013-.584-.023a4.54 4.54 0 0 1-1.287-.261 9.164 9.164 0 0 1-1.718-.806 5.068 5.068 0 0 1-1.583-1.533 6.066 6.066 0 0 1-.526-.924.126.126 0 0 0-.09-.076.73.73 0 0 1-.49-.41 5.28 5.28 0 0 1-.28-.914A7.107 7.107 0 0 1 0 6.45c.005-.327.035-.655.09-.979.062-.44.171-.871.326-1.287.137-.365.33-.705.571-1.01.14-.177.257-.374.394-.554A6.165 6.165 0 0 1 4.9.335c.271-.065.542-.134.816-.184.245-.046.49-.075.741-.098.29-.026.581-.05.874-.052a5.652 5.652 0 0 1 3.285.997c.11.066.21.15.294.246a.569.569 0 0 1 .12.265.12.12 0 0 0 .038.058c.23.222.475.433.687.671.338.369.582.812.712 1.295a1.552 1.552 0 0 1-.113 1.181c-.16.269-.384.493-.652.653-.3.203-.658.3-1.019.276a1.392 1.392 0 0 1-.9-.387 8.629 8.629 0 0 0-.817-.746c-.19-.143-.385-.279-.583-.408a2.135 2.135 0 0 0-.778-.28 3.947 3.947 0 0 0-.95-.058 3.248 3.248 0 0 0-1.918.673c-.413.312-.753.71-.995 1.167a2.588 2.588 0 0 0-.257.884c-.026.19-.042.382-.045.573.015.547.157 1.082.416 1.564.19.374.445.711.75.999.285.255.6.475.939.652.386.21.811.334 1.249.364a3.406 3.406 0 0 0 1.686-.253c.254-.12.489-.278.695-.47.356-.306.654-.673.881-1.083.085-.149.144-.312.216-.469.021-.047.045-.094.07-.14a.335.335 0 0 1 .05-.06ZM22.404 9.762c-1.737 0-2.9-1.292-2.9-3.081s1.163-3.082 2.9-3.082a3.08 3.08 0 0 1 2.448 1.254.153.153 0 0 0 .248.026l1.384-1.188a.18.18 0 0 0 .026-.235c-.849-1.24-2.285-1.867-4.1-1.867-3.1 0-5.144 2.31-5.144 5.092 0 2.807 2.05 5.118 5.144 5.118 1.815 0 3.343-.77 4.1-1.893a.178.178 0 0 0-.026-.235l-1.397-1.143a.142.142 0 0 0-.235.027 3.073 3.073 0 0 1-2.448 1.2v.007ZM31.849 8.728c0 .796-.47 1.266-1.306 1.266-.835 0-1.332-.47-1.332-1.266V4.262a.163.163 0 0 0-.163-.163h-1.697a.163.163 0 0 0-.163.163v4.544c0 1.985 1.162 2.977 2.624 2.977 1.045 0 1.75-.64 2.05-1.606v1.24a.173.173 0 0 0 .163.164h1.71a.163.163 0 0 0 .164-.164V4.262a.163.163 0 0 0-.163-.163h-1.717a.163.163 0 0 0-.164.163l-.006 4.466ZM38.582 5.689a.163.163 0 0 0 .163.163h1.097v3.506c0 1.41.718 2.232 2.22 2.232h1.397a.163.163 0 0 0 .163-.163V9.958a.15.15 0 0 0-.163-.163h-.948c-.47 0-.627-.163-.627-.561V5.855h1.554a.163.163 0 0 0 .163-.163V4.269a.163.163 0 0 0-.163-.164h-1.554V1.951a.163.163 0 0 0-.163-.163h-1.735a.15.15 0 0 0-.163.163v2.141h-1.097a.163.163 0 0 0-.163.164l.02 1.433ZM49.42 8.728c0 .796-.471 1.266-1.306 1.266-.836 0-1.332-.47-1.332-1.266V4.262a.163.163 0 0 0-.164-.163h-1.697a.163.163 0 0 0-.163.163v4.544c0 1.985 1.162 2.977 2.624 2.977 1.045 0 1.75-.64 2.05-1.606v1.24a.173.173 0 0 0 .163.164h1.71a.164.164 0 0 0 .164-.164V4.262a.163.163 0 0 0-.163-.163h-1.717a.163.163 0 0 0-.163.163l-.007 4.466ZM53.147 11.417a.164.164 0 0 0 .163.164h1.685a.164.164 0 0 0 .163-.164v-4.1c0-1.031.653-1.227 1.567-1.227h.678a.164.164 0 0 0 .164-.163V4.262a.163.163 0 0 0-.163-.163h-.163c-1.097 0-1.776.51-2.09 1.75v-1.58a.163.163 0 0 0-.163-.164h-1.684a.164.164 0 0 0-.163.164l.006 7.148Z"/><path fill-rule="evenodd" d="M65.18 7.843c0-2.233-1.332-4.048-3.735-4.048-2.259 0-3.734 1.815-3.734 4.048 0 2.311 1.645 4.035 4.152 4.035 1.358 0 2.52-.601 3.069-1.397a.173.173 0 0 0-.04-.249L63.75 9.214a.148.148 0 0 0-.117-.036.148.148 0 0 0-.105.062 2.065 2.065 0 0 1-1.75.888c-.966 0-1.854-.457-1.985-1.71h5.223a.15.15 0 0 0 .163-.164v-.411Zm-2.063-.983c-.144-.81-.745-1.318-1.659-1.318-.9 0-1.502.502-1.645 1.318h3.304ZM67.907 11.434a.119.119 0 0 0 .105.163h1.997a.223.223 0 0 0 .222-.163l.797-2.168h4.021l.816 2.168a.224.224 0 0 0 .222.163h2.037a.12.12 0 0 0 .094-.055.119.119 0 0 0 .01-.108L74.573 1.94a.21.21 0 0 0-.21-.143h-2.598a.212.212 0 0 0-.222.143l-3.636 9.493Zm5.123-7.59L71.713 7.4h2.638l-1.32-3.555Z" clip-rule="evenodd"/><path d="M79.374 11.417a.163.163 0 0 0 .163.164h1.697a.163.163 0 0 0 .163-.164V6.86c0-.73.405-1.188 1.175-1.188.771 0 1.202.457 1.202 1.188v4.557a.163.163 0 0 0 .163.164h1.71a.164.164 0 0 0 .164-.164V6.86c0-.73.417-1.188 1.175-1.188.757 0 1.201.457 1.201 1.188v4.557a.171.171 0 0 0 .163.164h1.698a.164.164 0 0 0 .163-.164V6.795c0-1.932-1.143-2.912-2.598-2.912-1.228 0-1.854.797-2.18 1.796a2.194 2.194 0 0 0-2.123-1.796c-1.07 0-1.553.653-1.919 1.62v-1.24a.164.164 0 0 0-.163-.164H79.53a.163.163 0 0 0-.164.163l.007 7.155Z"/><path fill-rule="evenodd" d="M99.995 7.84c0-2.194-1.292-3.957-3.369-3.957-1.357 0-2.402.719-2.728 1.737V4.262a.163.163 0 0 0-.163-.163H92.03a.163.163 0 0 0-.164.163v10.054a.163.163 0 0 0 .163.163h1.711a.163.163 0 0 0 .163-.163v-4.244c.327 1.019 1.371 1.724 2.729 1.724 2.076 0 3.369-1.75 3.369-3.956h-.007Zm-2.167 0c0-1.293-.783-2.168-1.959-2.168-1.188 0-1.971.849-1.971 2.155 0 1.305.796 2.167 1.971 2.167 1.176 0 1.959-.862 1.959-2.154Z" clip-rule="evenodd"/><path d="m37.448 1.265-1.722.004a.15.15 0 0 0-.163.163v9.989a.163.163 0 0 0 .163.163h1.722a.163.163 0 0 0 .163-.163V1.429a.15.15 0 0 0-.163-.164Z"/></g><defs><clipPath id="a"><path fill="#fff" d="M0 0h100v14.516H0z"/></clipPath></defs></svg>
